Numix-Circle/48x48/apps/arista.svg

<?xml version="1.0" encoding="UTF-8" standalone="no"?>
<svg
   xmlns:dc="http://purl.org/dc/elements/1.1/"
   xmlns:cc="http://creativecommons.org/ns#"
   xmlns:rdf="http://www.w3.org/1999/02/22-rdf-syntax-ns#"
   xmlns:svg="http://www.w3.org/2000/svg"
   xmlns="http://www.w3.org/2000/svg"
   xmlns:sodipodi="http://sodipodi.sourceforge.net/DTD/sodipodi-0.dtd"
   xmlns:inkscape="http://www.inkscape.org/namespaces/inkscape"
   viewBox="0 0 48 48"
   id="svg2"
   version="1.1"
   inkscape:version="0.48.4 r9939"
   width="100%"
   height="100%"
   sodipodi:docname="arista.svg">
  <metadata
     id="metadata81">
    <rdf:RDF>
      <cc:Work
         rdf:about="">
        <dc:format>image/svg+xml</dc:format>
        <dc:type
           rdf:resource="http://purl.org/dc/dcmitype/StillImage" />
      </cc:Work>
    </rdf:RDF>
  </metadata>
  <sodipodi:namedview
     pagecolor="#ffffff"
     bordercolor="#666666"
     borderopacity="1"
     objecttolerance="10"
     gridtolerance="10"
     guidetolerance="10"
     inkscape:pageopacity="0"
     inkscape:pageshadow="2"
     inkscape:window-width="1280"
     inkscape:window-height="960"
     id="namedview79"
     showgrid="false"
     inkscape:zoom="9.8333333"
     inkscape:cx="41.212695"
     inkscape:cy="26.156144"
     inkscape:window-x="0"
     inkscape:window-y="0"
     inkscape:window-maximized="1"
     inkscape:current-layer="svg2" />
  <defs
     id="defs4">
    <linearGradient
       id="linearGradient3764"
       x1="1"
       x2="47"
       gradientUnits="userSpaceOnUse"
       gradientTransform="matrix(0,-1,1,0,-1.5e-6,47.999998)">
      <stop
         stop-color="#e4e4e4"
         stop-opacity="1"
         id="stop7" />
      <stop
         offset="1"
         stop-color="#eee"
         stop-opacity="1"
         id="stop9" />
    </linearGradient>
    <clipPath
       id="clipPath-321766810">
      <g
         transform="translate(0,-1004.3622)"
         id="g12">
        <path
           d="m -24 13 c 0 1.105 -0.672 2 -1.5 2 -0.828 0 -1.5 -0.895 -1.5 -2 0 -1.105 0.672 -2 1.5 -2 0.828 0 1.5 0.895 1.5 2 z"
           transform="matrix(15.333333,0,0,11.5,414.99999,878.8622)"
           fill="#1890d0"
           id="path14" />
      </g>
    </clipPath>
    <clipPath
       id="clipPath-333511836">
      <g
         transform="translate(0,-1004.3622)"
         id="g17">
        <path
           d="m -24 13 c 0 1.105 -0.672 2 -1.5 2 -0.828 0 -1.5 -0.895 -1.5 -2 0 -1.105 0.672 -2 1.5 -2 0.828 0 1.5 0.895 1.5 2 z"
           transform="matrix(15.333333,0,0,11.5,414.99999,878.8622)"
           fill="#1890d0"
           id="path19" />
      </g>
    </clipPath>
  </defs>
  <g
     id="g21">
    <path
       d="m 36.31 5 c 5.859 4.062 9.688 10.831 9.688 18.5 c 0 12.426 -10.07 22.5 -22.5 22.5 c -7.669 0 -14.438 -3.828 -18.5 -9.688 c 1.037 1.822 2.306 3.499 3.781 4.969 c 4.085 3.712 9.514 5.969 15.469 5.969 c 12.703 0 23 -10.298 23 -23 c 0 -5.954 -2.256 -11.384 -5.969 -15.469 c -1.469 -1.475 -3.147 -2.744 -4.969 -3.781 z m 4.969 3.781 c 3.854 4.113 6.219 9.637 6.219 15.719 c 0 12.703 -10.297 23 -23 23 c -6.081 0 -11.606 -2.364 -15.719 -6.219 c 4.16 4.144 9.883 6.719 16.219 6.719 c 12.703 0 23 -10.298 23 -23 c 0 -6.335 -2.575 -12.06 -6.719 -16.219 z"
       opacity="0.05"
       id="path23" />
    <path
       d="m 41.28 8.781 c 3.712 4.085 5.969 9.514 5.969 15.469 c 0 12.703 -10.297 23 -23 23 c -5.954 0 -11.384 -2.256 -15.469 -5.969 c 4.113 3.854 9.637 6.219 15.719 6.219 c 12.703 0 23 -10.298 23 -23 c 0 -6.081 -2.364 -11.606 -6.219 -15.719 z"
       opacity="0.1"
       id="path25" />
    <path
       d="m 31.25 2.375 c 8.615 3.154 14.75 11.417 14.75 21.13 c 0 12.426 -10.07 22.5 -22.5 22.5 c -9.708 0 -17.971 -6.135 -21.12 -14.75 a 23 23 0 0 0 44.875 -7 a 23 23 0 0 0 -16 -21.875 z"
       opacity="0.2"
       id="path27" />
  </g>
  <path
     style="fill:#3daf27;fill-opacity:1;fill-rule:evenodd;stroke:none"
     d="M 24 1 C 21.185877 1 18.492176 1.5126095 16 2.4375 L 16 45.5625 C 18.492176 46.487653 21.185877 47 24 47 C 26.813237 47 29.508055 46.487653 32 45.5625 L 32 2.4375 C 29.508055 1.5126095 26.813237 1 24 1 z "
     id="path65" />
  <g
     id="g33" />
  <path
     style="fill:#337dd6;fill-opacity:1;fill-rule:nonzero;stroke:none"
     d="M 32 2.4375 L 32 45.5625 C 40.756735 42.311498 47 33.885763 47 24 C 47 14.111123 40.756735 5.6875807 32 2.4375 z "
     id="path69" />
  <path
     style="fill:#000000;fill-opacity:1;fill-rule:nonzero;stroke:none;opacity:0.1"
     d="m 25.03125,14 c -4.715,0 -9.01875,2.82325 -10.71875,7.03125 L 17.875,22.375 c 1.133,-2.809 4.01425,-4.6875 7.15625,-4.6875 3.035,0 5.72675,1.66025 6.96875,4.28125 l -2.625,1 6.6875,3.6875 L 38,19.6875 35.5625,20.625 C 33.7345,16.605 29.64025,14 25.03125,14 z m -11,9.4375 L 12,30.21875 14.46875,29.3125 c 1.793,4.01 5.9805,6.6875 10.5625,6.6875 4.734,0 8.9215,-2.7305 10.6875,-6.9375 l -3.5625,-1.34375 c -1.168,2.809 -3.969,4.625 -7.125,4.625 -3.01,0 -5.74175,-1.72675 -6.96875,-4.34375 L 20.625,27.03125 14.03125,23.4375 z"
     id="use3093"
     inkscape:connector-curvature="0" />
  <path
     style="fill:#d51a3b;fill-opacity:1;fill-rule:evenodd;stroke:none"
     d="M 16 2.4375 C 7.2424518 5.6875807 1 14.111123 1 24 C 1 33.885763 7.2424518 42.311498 16 45.5625 L 16 2.4375 z "
     id="path67" />
  <path
     style="fill:#f9f9f9;fill-opacity:1;fill-rule:nonzero;stroke:none"
     inkscape:connector-curvature="0"
     id="path71"
     d="M 34.559,19.613 C 32.731,15.593 28.637,13 24.028,13 c -4.715,0 -9.03,2.832 -10.73,7.04 l 3.578,1.324 c 1.133,-2.809 4.01,-4.688 7.152,-4.688 3.035,0 5.719,1.68 6.961,4.301 l -2.609,1 6.672,3.688 1.953,-6.977 m -2.445,0.93" />
  <path
     style="fill:#f9f9f9;fill-opacity:1;fill-rule:nonzero;stroke:none"
     inkscape:connector-curvature="0"
     id="path73"
     d="m 24.03,31.33 c -3.01,0 -5.75,-1.727 -6.977,-4.344 l 2.563,-0.945 -6.598,-3.602 -2.02,6.793 2.461,-0.91 c 1.793,4.01 5.98,6.68 10.562,6.68 4.734,0 8.922,-2.719 10.688,-6.926 l -3.566,-1.355 c -1.168,2.809 -3.965,4.621 -7.121,4.621 m 0,-0.004" />
  <g
     id="g75">
    <path
       d="m 40.03 7.531 c 3.712 4.084 5.969 9.514 5.969 15.469 0 12.703 -10.297 23 -23 23 c -5.954 0 -11.384 -2.256 -15.469 -5.969 4.178 4.291 10.01 6.969 16.469 6.969 c 12.703 0 23 -10.298 23 -23 0 -6.462 -2.677 -12.291 -6.969 -16.469 z"
       opacity="0.1"
       id="path77" />
  </g>
</svg>

<svg xmlns="http://www.w3.org/2000/svg" viewBox="0 0 48 48"><defs><clipPath><g transform="translate(0,-1004.3622)"><path d="m -24 13 c 0 1.105 -0.672 2 -1.5 2 -0.828 0 -1.5 -0.895 -1.5 -2 0 -1.105 0.672 -2 1.5 -2 0.828 0 1.5 0.895 1.5 2 z" transform="matrix(15.333333,0,0,11.5,414.99999,878.8622)" fill="#1890d0"/></g></clipPath><clipPath><g transform="translate(0,-1004.3622)"><path d="m -24 13 c 0 1.105 -0.672 2 -1.5 2 -0.828 0 -1.5 -0.895 -1.5 -2 0 -1.105 0.672 -2 1.5 -2 0.828 0 1.5 0.895 1.5 2 z" transform="matrix(15.333333,0,0,11.5,414.99999,878.8622)" fill="#1890d0"/></g></clipPath></defs><g><path d="m 36.31 5 c 5.859 4.062 9.688 10.831 9.688 18.5 c 0 12.426 -10.07 22.5 -22.5 22.5 c -7.669 0 -14.438 -3.828 -18.5 -9.688 c 1.037 1.822 2.306 3.499 3.781 4.969 c 4.085 3.712 9.514 5.969 15.469 5.969 c 12.703 0 23 -10.298 23 -23 c 0 -5.954 -2.256 -11.384 -5.969 -15.469 c -1.469 -1.475 -3.147 -2.744 -4.969 -3.781 z m 4.969 3.781 c 3.854 4.113 6.219 9.637 6.219 15.719 c 0 12.703 -10.297 23 -23 23 c -6.081 0 -11.606 -2.364 -15.719 -6.219 c 4.16 4.144 9.883 6.719 16.219 6.719 c 12.703 0 23 -10.298 23 -23 c 0 -6.335 -2.575 -12.06 -6.719 -16.219 z" opacity="0.05"/><path d="m 41.28 8.781 c 3.712 4.085 5.969 9.514 5.969 15.469 c 0 12.703 -10.297 23 -23 23 c -5.954 0 -11.384 -2.256 -15.469 -5.969 c 4.113 3.854 9.637 6.219 15.719 6.219 c 12.703 0 23 -10.298 23 -23 c 0 -6.081 -2.364 -11.606 -6.219 -15.719 z" opacity="0.1"/><path d="m 31.25 2.375 c 8.615 3.154 14.75 11.417 14.75 21.13 c 0 12.426 -10.07 22.5 -22.5 22.5 c -9.708 0 -17.971 -6.135 -21.12 -14.75 a 23 23 0 0 0 44.875 -7 a 23 23 0 0 0 -16 -21.875 z" opacity="0.2"/></g><path d="m 24 1 c -2.814 0 -5.508 0.513 -8 1.438 l 0 43.13 c 2.492 0.925 5.186 1.438 8 1.438 c 2.813 0 5.508 -0.512 8 -1.438 l 0 -43.12 c -2.492 -0.925 -5.187 -1.438 -8 -1.438 z" fill="#3daf27" fill-rule="evenodd" stroke="none" fill-opacity="1"/><path d="m 32 2.438 l 0 43.13 c 8.757 -3.251 15 -11.677 15 -21.563 c 0 -9.889 -6.243 -18.312 -15 -21.563 z" fill="#337dd6" fill-rule="nonzero" stroke="none" fill-opacity="1"/><path d="m 25.03 14 c -4.715 0 -9.02 2.823 -10.719 7.03 l 3.563 1.344 c 1.133 -2.809 4.01 -4.688 7.156 -4.688 3.035 0 5.727 1.66 6.969 4.281 l -2.625 1 6.688 3.688 l 1.938 -6.969 -2.438 0.938 c -1.828 -4.02 -5.922 -6.625 -10.531 -6.625 z m -11 9.438 l -2.031 6.781 2.469 -0.906 c 1.793 4.01 5.98 6.688 10.563 6.688 4.734 0 8.922 -2.73 10.688 -6.938 l -3.563 -1.344 c -1.168 2.809 -3.969 4.625 -7.125 4.625 -3.01 0 -5.742 -1.727 -6.969 -4.344 l 2.563 -0.969 -6.594 -3.594 z" opacity="0.1" fill="#000" fill-rule="nonzero" stroke="none" fill-opacity="1"/><path d="m 16 2.438 c -8.758 3.25 -15 11.674 -15 21.563 c 0 9.886 6.242 18.311 15 21.563 l 0 -43.12 z" fill="#d51a3b" fill-rule="evenodd" stroke="none" fill-opacity="1"/><path d="M 34.559,19.613 C 32.731,15.593 28.637,13 24.028,13 c -4.715,0 -9.03,2.832 -10.73,7.04 l 3.578,1.324 c 1.133,-2.809 4.01,-4.688 7.152,-4.688 3.035,0 5.719,1.68 6.961,4.301 l -2.609,1 6.672,3.688 1.953,-6.977 m -2.445,0.93" fill="#f9f9f9" fill-rule="nonzero" stroke="none" fill-opacity="1"/><path d="m 24.03 31.33 c -3.01 0 -5.75 -1.727 -6.977 -4.344 l 2.563 -0.945 -6.598 -3.602 -2.02 6.793 2.461 -0.91 c 1.793 4.01 5.98 6.68 10.562 6.68 4.734 0 8.922 -2.719 10.688 -6.926 l -3.566 -1.355 c -1.168 2.809 -3.965 4.621 -7.121 4.621 m 0 -0.004" fill="#f9f9f9" fill-rule="nonzero" stroke="none" fill-opacity="1"/><g><path d="m 40.03 7.531 c 3.712 4.084 5.969 9.514 5.969 15.469 0 12.703 -10.297 23 -23 23 c -5.954 0 -11.384 -2.256 -15.469 -5.969 4.178 4.291 10.01 6.969 16.469 6.969 c 12.703 0 23 -10.298 23 -23 0 -6.462 -2.677 -12.291 -6.969 -16.469 z" opacity="0.1"/></g></svg>
